icons/chart-cured-decreasing.svg

<svg width="48" height="48" viewBox="0 0 48 48" fill="none" xmlns="http://www.w3.org/2000/svg">
<path d="M15.8282 18.1398C13.6843 16.7409 11.3026 16 8.87115 16H8V6H6V41C6 41.5523 6.44772 42 7 42H42V40H8V18H8.87117C10.8868 18 12.8924 18.6123 14.7353 19.8148C16.5811 21.0192 18.2174 22.7864 19.5 25.0011C20.9186 27.4509 22.7615 29.4633 24.9025 30.8604C27.0465 32.2593 29.4283 33.0002 31.8597 33H38.3663L35.2927 36.0748C34.9023 36.4654 34.9024 37.0986 35.293 37.489C35.6836 37.8795 36.3168 37.8793 36.7073 37.4887L41.4873 32.7067C41.8776 32.3162 41.8776 31.6833 41.4873 31.2928L36.7073 26.5108C36.3168 26.1202 35.6836 26.1201 35.293 26.5105C34.9024 26.901 34.9023 27.5341 35.2927 27.9247L38.3667 31H31.8596C29.844 31.0001 27.8383 30.3879 25.9954 29.1854C24.1496 27.981 22.5133 26.2137 21.2308 23.9988C19.8121 21.5492 17.9693 19.5368 15.8282 18.1398Z" fill="black"/>
<path fill-rule="evenodd" clip-rule="evenodd" d="M31.8571 6C31.1878 6 30.5458 6.2659 30.0725 6.73921C29.5992 7.21251 29.3333 7.85445 29.3333 8.52381V11.3333H26.5238C25.8545 11.3333 25.2125 11.5992 24.7392 12.0725C24.2659 12.5458 24 13.1878 24 13.8571V16.1429C24 16.8122 24.2659 17.4542 24.7392 17.9275C25.2125 18.4008 25.8545 18.6667 26.5238 18.6667H29.3333V21.4762C29.3333 22.1455 29.5992 22.7875 30.0725 23.2608C30.5458 23.7341 31.1878 24 31.8571 24H34.1429C34.8122 24 35.4542 23.7341 35.9275 23.2608C36.4008 22.7875 36.6667 22.1455 36.6667 21.4762V18.6667H39.4762C40.1455 18.6667 40.7875 18.4008 41.2608 17.9275C41.7341 17.4542 42 16.8122 42 16.1429V13.8571C42 13.1878 41.7341 12.5458 41.2608 12.0725C40.7875 11.5992 40.1455 11.3333 39.4762 11.3333H36.6667V8.52381C36.6667 7.85445 36.4008 7.21251 35.9275 6.73921C35.4542 6.2659 34.8122 6 34.1429 6H31.8571ZM31.4868 8.15342C31.585 8.05519 31.7182 8 31.8571 8H34.1429C34.2818 8 34.415 8.05519 34.5132 8.15342C34.6115 8.25165 34.6667 8.38489 34.6667 8.52381V12.3333C34.6667 12.8856 35.1144 13.3333 35.6667 13.3333H39.4762C39.6151 13.3333 39.7483 13.3885 39.8466 13.4868C39.9448 13.585 40 13.7182 40 13.8571V16.1429C40 16.2818 39.9448 16.415 39.8466 16.5132C39.7483 16.6115 39.6151 16.6667 39.4762 16.6667H35.6667C35.1144 16.6667 34.6667 17.1144 34.6667 17.6667V21.4762C34.6667 21.6151 34.6115 21.7483 34.5132 21.8466C34.415 21.9448 34.2818 22 34.1429 22H31.8571C31.7182 22 31.585 21.9448 31.4868 21.8466C31.3885 21.7483 31.3333 21.6151 31.3333 21.4762V17.6667C31.3333 17.1144 30.8856 16.6667 30.3333 16.6667H26.5238C26.3849 16.6667 26.2517 16.6115 26.1534 16.5132C26.0552 16.415 26 16.2818 26 16.1429V13.8571C26 13.7182 26.0552 13.585 26.1534 13.4868C26.2517 13.3885 26.3849 13.3333 26.5238 13.3333H30.3333C30.8856 13.3333 31.3333 12.8856 31.3333 12.3333V8.52381C31.3333 8.38489 31.3885 8.25165 31.4868 8.15342Z" fill="black"/>
</svg>

<svg
  xmlns="http://www.w3.org/2000/svg"
  width="24"
  height="24"
  viewBox="0 0 24 24"
  fill="none"
  stroke="currentColor"
  stroke-width="2"
  stroke-linecap="round"
  stroke-linejoin="round"
>
  <path d="M15.828 18.14C13.684 16.74 11.303 16 8.871 16H8V6H6v35a1 1 0 0 0 1 1h35v-2H8V18h.871c2.016 0 4.021.612 5.864 1.815 1.846 1.204 3.482 2.971 4.765 5.186 1.419 2.45 3.262 4.462 5.403 5.86C27.047 32.258 29.428 33 31.86 33h6.506l-3.073 3.075a1 1 0 0 0 1.414 1.414l4.78-4.782a1 1 0 0 0 0-1.414l-4.78-4.782a1 1 0 0 0-1.414 1.414L38.367 31H31.86c-2.016 0-4.022-.612-5.865-1.815-1.845-1.204-3.482-2.971-4.764-5.186-1.419-2.45-3.262-4.462-5.403-5.86" />
  <path
    fill-rule="evenodd"
    d="M31.857 6a2.524 2.524 0 0 0-2.524 2.524v2.81h-2.81A2.524 2.524 0 0 0 24 13.856v2.286a2.524 2.524 0 0 0 2.524 2.524h2.81v2.81A2.524 2.524 0 0 0 31.856 24h2.286a2.524 2.524 0 0 0 2.524-2.524v-2.81h2.81A2.524 2.524 0 0 0 42 16.144v-2.286a2.524 2.524 0 0 0-2.524-2.524h-2.81v-2.81A2.524 2.524 0 0 0 34.144 6zm-.37 2.153a.52.52 0 0 1 .37-.153h2.286a.524.524 0 0 1 .524.524v3.81a1 1 0 0 0 1 1h3.81a.524.524 0 0 1 .523.523v2.286a.524.524 0 0 1-.524.524h-3.81a1 1 0 0 0-1 1v3.81a.524.524 0 0 1-.523.523h-2.286a.524.524 0 0 1-.524-.524v-3.81a1 1 0 0 0-1-1h-3.81a.524.524 0 0 1-.523-.523v-2.286a.524.524 0 0 1 .524-.524h3.81a1 1 0 0 0 1-1v-3.81c0-.138.055-.271.153-.37"
    clip-rule="evenodd"
  />
</svg>
